X: 321
%
U:~=!turn!
T: Lady Shaftsbury
C:Nath. Gow
O:Scotland
B:Keith Norman MacDonald : "The Skye collection of the best reels & strathspeys extant" : 1887
Z:Ralph Palmer
R:Strathspey
M:2/4
L:1/8
K:Eb
"Slow"G/F/ | EB,G,B, | TE>FGc | BGTF>E | DFFG/F/ | .E.B,G,B, | TE>FGc | BGTF>G | E3 :|
!p!B | (ed).c.B | {/d}e2 E>c | BGTF>E | DFFB | (ed).c.B | {d}e2 E>c | BGTF>G | [G,3E3] B |
edcB | T(B/=A/)B/c/ (Td/c/)d/e/ | fFFF &!p!zDDD | F>GAc &D>E F2 | B>cBG | {/G}FTEFG | (E/F/G/F/) EB, | [G,3E3] |]


